X: 22644
T: Laird Of Drumblair, The
R: strathspey
M: 4/4
K: Gmajor
D|G2 B>G D>GB>d|g2 f>g e>gd>B|(3cde (3def (3gdc (3BAG|(3ABc (3BAG (3FED (3cBA|
G2 B>G D>GB>d|g2 f>g e>gd>B|(3cde (3def (3gdc (3BAG|(3FED (3cBA G2 G:|
f|g2 d>g B>g G>A|(3BAG d>f g>dB<d|a2 e>a ^c>a A>B|(3^cBA e>^g a>e6c<e|
g2 d>g B>g G>A|(3BAG d>f g>dB<G|(3cde (3def (3gdc (3BAG|(3FED (3cBA G2 G:|

